src/24/panel/qtox-event.svg

<svg xmlns="http://www.w3.org/2000/svg" width="24" height="24" version="1.1">
 <defs>
  <style id="current-color-scheme" type="text/css">
   .ColorScheme-Text { color:#dfdfdf; } .ColorScheme-Highlight { color:#4285f4; }
  </style>
 </defs>
 <g>
  <path style="fill:currentColor" class="ColorScheme-Text" d="m 12,11 c 2.209116,5.5e-5 3.999945,1.790884 4,4 -5.5e-5,2.209116 -1.790884,3.999945 -4,4 -2.2091161,-5.5e-5 -3.9999448,-1.790884 -4,-4 5.52e-5,-2.209116 1.7908839,-3.999945 4,-4 z m 0,-5 c 1.1052,0 2,0.8955 2,2 0,0.4715 -0.102,0.8423 -0.236,1.1074 C 13.631,9.3725 13.338,9.7271 13,10 c -0.33,0.2671 -1,0.6 -1,0.6 0,0 0.303,-0.3643 0.428,-0.65 C 12.287,9.9813 12.145,10 12,10 10.8956,10.001 10,9.1045 10,8 10,6.8955 10.8948,6 12,6 Z M 12,4 C 9.7911,4 8,5.7911 8,8 l 0,2 -2,0 C 5.4476649,9.9998784 4.9998784,10.447665 5,11 l 0,8 c -1.216e-4,0.552335 0.4476649,1.000122 1,1 l 12,0 c 0.552335,1.22e-4 1.000122,-0.447665 1,-1 l 0,-8 c 1.22e-4,-0.552335 -0.447665,-1.0001216 -1,-1 l -2,0 0,-2 C 16,5.7911 14.209,4 12,4 Z"/>
  <path style="fill:currentColor" class="ColorScheme-Highlight" d="m 12,12 c -1.656854,0 -3,1.343146 -3,3 0,1.656854 1.343146,3 3,3 1.656854,0 3,-1.343146 3,-3 0,-1.656854 -1.343146,-3 -3,-3 z"/>
 </g>
</svg>

<?xml version="1.0" encoding="UTF-8"?>
<svg width="24" height="24" version="1.1" xmlns="http://www.w3.org/2000/svg" xmlns:cc="http://creativecommons.org/ns#" xmlns:dc="http://purl.org/dc/elements/1.1/" xmlns:rdf="http://www.w3.org/1999/02/22-rdf-syntax-ns#"><defs><style id="current-color-scheme" type="text/css">.ColorScheme-Text{color:#dfdfdf;}.ColorScheme-Highlight{color:#5294e2;}</style></defs>
 <metadata>
  <rdf:RDF>
   <cc:Work rdf:about="">
    <dc:format>image/svg+xml</dc:format>
    <dc:type rdf:resource="http://purl.org/dc/dcmitype/StillImage"/>
    <dc:title/>
   </cc:Work>
  </rdf:RDF>
 </metadata>
 <g fill="#dfdfdf">
  <path d="M12 11a4 4 0 1 1 0 8 4 4 0 0 1 0-8zm0-5a2 2 0 0 1 2 2c0 .471-.102.842-.236 1.107-.133.266-.426.62-.764.893-.33.267-1 .6-1 .6s.303-.364.428-.65c-.141.031-.283.05-.428.05a2 2 0 1 1 0-4zm0-2a4 4 0 0 0-4 4v2H6a1 1 0 0 0-1 1v8a1 1 0 0 0 1 1h12a1 1 0 0 0 1-1v-8a1 1 0 0 0-1-1h-2V8a4 4 0 0 0-4-4z" class="ColorScheme-Text"/>
  <path d="m12 12a3 3 0 1 0 0 6 3 3 0 0 0 0-6z" class="ColorScheme-Highlight"/>
 </g>
</svg>
